X:1
T:Title
%%score { 1 | ( 2 3 4 ) }
L:1/8
Q:1/4=196
M:4/2
K:E
V:1 treble nm="Grand Piano"
V:2 bass 
V:3 bass 
V:4 bass 
V:1
 E4 G3 A B4 B4 | c4 [Ee]4 B8 | c4 B2 B2 [B,FA]4 [B,EG]4 |[M:7/4] [A,CF]4[K:bass] [F,C]4 [F,B,D]6 | %4
w: S.~Smith * * * *||||
[M:1/4][K:treble] [B,DF]2 |[M:8/4] [B,FB]4 [B,DA]4 [B,EG]4 [B,EB]4 | [Ec]4 [FAd]4 [EGe]6 [EAc]2 | %7
w: |||
 [EB]4 [G,E]4 .[A,CA]4 [B,EG]4 | [EF]4 [DF]4 [G,E]8 |] %9
w: ||
V:2
 E,4 G,3 A, B,4 B,4 | [A,E]4 [C,A,]4 [E,G,E]8 | [A,E]4 [G,B,E]2 [G,B,E]2 D,4 E,4 | %3
[M:7/4] A,,4 A,,4 B,,6 |[M:1/4] B,,2 |[M:8/4] D,4 B,,4 E,4 G,4 | A,4 F,4 C6 A,2 | %7
 G,4 z2 D2 z2 D2 G,2 A,2 | B,8 z8 |] %9
V:3
 x16 | x16 | x16 |[M:7/4] x14 |[M:1/4] x2 |[M:8/4] x16 | x16 | z4 C,4 F,4 z4 | z4 z2 A,2 E,8 |] %9
V:4
 x16 | x16 | x16 |[M:7/4] x14 |[M:1/4] x2 |[M:8/4] x16 | x16 | x16 | z4 B,,4 z8 |] %9

